src/icons/svgs/24/star.svg

<svg width="24" height="24" viewBox="0 0 24 24" fill="none" xmlns="http://www.w3.org/2000/svg">
<path d="M20.9745 8.3641L15.5116 7.57406L13.0702 2.6609C12.8548 2.22157 12.4257 1.99993 11.9668 2C11.575 2 11.1458 2.2189 10.9294 2.66053L8.48531 7.57369L3.02506 8.3641C2.04481 8.50511 1.65226 9.70371 2.36273 10.3902L6.31434 14.179L5.38073 19.6117C5.2464 20.3798 5.86582 20.9995 6.55988 20.9995C6.74391 20.9995 6.93339 20.956 7.11512 20.8604L12.0003 18.3129L16.8848 20.8622C17.0664 20.957 17.2552 21 17.4389 21C18.1334 21 18.7528 20.3836 18.62 19.6118L17.6852 14.2125L21.6368 10.4237C22.3477 9.70371 21.9559 8.50511 20.9745 8.3641ZM15.8139 13.897L16.6497 18.7248L12.2765 16.4433C12.1909 16.3987 12.0957 16.3754 11.999 16.3754C11.9024 16.3754 11.8072 16.3987 11.7216 16.4433L7.35094 18.7248L8.18679 13.897C8.22037 13.704 8.12336 13.5073 8.01514 13.37L4.48145 9.95271L9.36593 9.24616C9.55997 9.21759 9.72788 9.09513 9.81371 8.92072L12.0003 4.523L14.1866 8.92035C14.2295 9.00658 14.2927 9.08117 14.371 9.13769C14.4493 9.19421 14.5402 9.23098 14.6359 9.24483L19.5204 9.95137L15.9867 13.3687C15.8437 13.5073 15.7803 13.704 15.8139 13.897Z" fill="black"/>
</svg>

<svg width="24" height="24" viewBox="0 0 24 24" xmlns="http://www.w3.org/2000/svg">
    <path d="m20.974 8.364-5.462-.79-2.442-4.913C12.855 2.22 12.426 2 11.967 2c-.392 0-.821.219-1.038.66L8.485 7.575l-5.46.79c-.98.141-1.373 1.34-.662 2.026l3.951 3.789-.933 5.433C5.246 20.38 5.866 21 6.56 21c.184 0 .373-.044.555-.14L12 18.313l4.885 2.55c.181.094.37.137.554.137.694 0 1.314-.616 1.181-1.388l-.935-5.4 3.952-3.788c.71-.72.319-1.919-.663-2.06Zm-5.16 5.533.836 4.828-4.373-2.282a.6.6 0 0 0-.555 0L7.35 18.725l.836-4.828c.033-.193-.064-.39-.172-.527L4.481 9.953l4.885-.707a.597.597 0 0 0 .448-.325L12 4.523l2.187 4.397a.595.595 0 0 0 .449.325l4.884.706-3.533 3.418a.592.592 0 0 0-.173.528Z"/>
</svg>
